build/img/adv-icon-2.svg

<svg width="45" height="47" viewBox="0 0 45 47" fill="none" xmlns="http://www.w3.org/2000/svg">
<path d="M15.0469 14.1748C14.6445 14.1748 14.3182 14.5065 14.3182 14.9156C14.3132 15.3963 13.9286 15.783 13.4561 15.783C12.9833 15.783 12.5987 15.3963 12.594 14.9156C12.594 14.5065 12.2678 14.1748 11.8654 14.1748C11.463 14.1748 11.1367 14.5065 11.1367 14.9156C11.1445 16.212 12.1806 17.2588 13.4561 17.2588C14.7313 17.2588 15.7677 16.212 15.7755 14.9156C15.7755 14.5065 15.4493 14.1748 15.0469 14.1748Z" fill="black"/>
<path d="M21.4102 17.2739C22.6903 17.2721 23.7278 16.2173 23.7296 14.9157C23.7296 14.5065 23.4033 14.1748 23.0009 14.1748C22.5985 14.1748 22.2723 14.5065 22.2723 14.9157C22.2673 15.3964 21.8827 15.7831 21.4102 15.7831C20.9373 15.7831 20.5527 15.3964 20.5481 14.9157C20.5481 14.5065 20.2219 14.1748 19.8195 14.1748C19.4171 14.1748 19.0908 14.5065 19.0908 14.9157C19.0922 16.2176 20.1297 17.2725 21.4102 17.2739Z" fill="black"/>
<path d="M44.2071 26.6521L35.3337 22.2264C35.1292 22.1259 34.8908 22.1259 34.6862 22.2264L25.8253 26.6398C25.5759 26.7645 25.418 27.0228 25.419 27.305V27.4095H23.3241V25.1516C23.7621 24.8323 24.1688 24.4709 24.5388 24.0719C26.1082 22.4456 27.1119 20.3423 27.3968 18.0822C28.5702 17.7853 29.4035 16.7269 29.4309 15.4978C29.4579 14.2687 28.6731 13.173 27.5139 12.8225V7.96357H29.0441C29.4472 7.96176 29.7728 7.62862 29.7728 7.21879C29.7685 3.23556 26.5945 0.00651091 22.6763 0H16.1209C15.3036 0 14.5067 0.261883 13.8438 0.748393C9.95509 2.26326 7.38666 6.0584 7.38488 10.2923V12.8052C6.20118 13.1101 5.37682 14.1992 5.38963 15.4403C5.38963 16.6828 6.28621 17.7625 7.46493 18.0754C7.75454 20.3394 8.76391 22.4453 10.3397 24.0719C10.8285 24.5823 11.3014 25.0337 11.939 25.4233V27.4095H8.05874C4.14615 27.4095 0.918091 30.6617 0.918091 34.6395V40.3615C0.918091 40.7706 1.28953 41.1142 1.69228 41.1142H27.7896C28.0974 41.413 28.4233 41.6919 28.7652 41.9491L34.5902 45.9851C34.8385 46.1555 35.164 46.1548 35.4113 45.9826L41.2587 41.9436C43.1721 40.6176 44.6379 37.8429 44.6379 35.4895V27.3169C44.6283 27.0308 44.4622 26.7739 44.2071 26.6521ZM27.9921 15.4403C27.9843 15.8244 27.8088 16.1854 27.5139 16.4252V14.4557C27.8088 14.6955 27.9843 15.0565 27.9921 15.4403ZM22.6763 1.48159C25.5389 1.48159 27.9102 3.70398 28.2689 6.48197H16.1209C14.7628 6.48197 13.6617 5.36246 13.6617 3.98178C13.6617 2.60111 14.7628 1.48159 16.1209 1.48159H22.6763ZM12.2634 3.32418C11.9589 5.1523 12.9398 6.95076 14.6259 7.65683C12.4378 10.0333 10.0262 10.3581 8.84218 10.3618V10.2923C8.85179 7.55446 10.117 4.97759 12.2634 3.32418ZM6.84729 15.4403C6.84729 15.0127 7.02055 14.6347 7.38488 14.4108V16.427C7.04546 16.219 6.84088 15.8432 6.84729 15.4403ZM11.3651 23.0389C9.74731 21.3634 8.84147 19.1095 8.84218 16.762V11.8412C10.3906 11.8343 13.6186 11.3898 16.2902 7.96357H26.0566V16.762C26.0513 19.1113 25.1397 21.3652 23.5177 23.0389C21.8843 24.744 19.7218 25.683 17.4412 25.683C15.1606 25.683 12.9978 24.7436 11.3651 23.0389ZM17.4455 27.1646C18.9835 27.166 20.4996 26.7935 21.8668 26.0773V27.7553L17.5209 30.5228L13.3963 27.7658V26.2614C14.6657 26.8568 16.0472 27.165 17.4451 27.1642L17.4455 27.1646ZM2.3754 34.6395C2.3754 31.4788 4.94987 28.8911 8.05874 28.8911H12.4118L16.7663 31.8022V39.6326H2.3754V34.6395ZM18.2236 39.6326V31.8127L22.8186 28.8911H25.419V35.4899C25.419 36.8463 25.8897 38.3362 26.6621 39.6326H18.2236ZM43.1799 35.4899C43.1799 37.3339 41.9372 39.6797 40.4375 40.7189L35.0118 44.4731L29.5967 40.7189C28.0967 39.6797 26.8763 37.3336 26.8763 35.4899V27.7669L35.0281 23.7167L43.1799 27.7784V35.4899Z" fill="black"/>
<path d="M32.142 33.559C31.9595 33.368 31.6898 33.2909 31.4361 33.3578C31.1824 33.4248 30.9835 33.6248 30.9156 33.8823C30.8473 34.1395 30.9202 34.414 31.1063 34.6014L33.3755 36.9217C33.5128 37.0595 33.6989 37.1355 33.8918 37.1322H33.8935C34.0857 37.1355 34.271 37.061 34.4087 36.9246L38.8924 32.3708C39.0781 32.1841 39.1514 31.9103 39.0838 31.6539C39.0165 31.3974 38.8191 31.1974 38.5665 31.1294C38.3139 31.0618 38.0449 31.137 37.862 31.3265L33.896 35.3592L32.142 33.559Z" fill="black"/>
</svg>

<svg width="45" height="47" fill="none" xmlns="http://www.w3.org/2000/svg"><path d="M15.047 14.175a.735.735 0 00-.729.74.87.87 0 01-.862.868.869.869 0 01-.862-.867.734.734 0 00-.729-.741.735.735 0 00-.728.74c.008 1.297 1.044 2.344 2.32 2.344 1.274 0 2.31-1.047 2.318-2.343a.734.734 0 00-.728-.741zm6.363 3.099c1.28-.002 2.318-1.057 2.32-2.358a.735.735 0 00-.73-.741.735.735 0 00-.728.74.87.87 0 01-.862.868.869.869 0 01-.862-.867.734.734 0 00-.728-.741.735.735 0 00-.73.74c.002 1.303 1.04 2.358 2.32 2.359z" fill="#000"/><path d="M44.207 26.652l-8.873-4.426a.733.733 0 00-.648 0l-8.86 4.414a.74.74 0 00-.407.665v.105h-2.095v-2.258c.438-.32.845-.681 1.215-1.08a10.52 10.52 0 002.858-5.99 2.718 2.718 0 002.034-2.584 2.723 2.723 0 00-1.917-2.675v-4.86h1.53a.739.739 0 00.729-.744C29.768 3.236 26.595.007 22.676 0h-6.555c-.817 0-1.614.262-2.277.748-3.889 1.515-6.457 5.31-6.46 9.544v2.513C6.202 13.11 5.378 14.2 5.39 15.44c0 1.243.896 2.322 2.075 2.635a10.539 10.539 0 002.875 5.997c.489.51.961.962 1.599 1.351v1.987h-3.88c-3.913 0-7.14 3.252-7.14 7.23v5.721c0 .41.37.753.773.753H27.79c.307.299.633.578.975.835l5.825 4.036a.72.72 0 00.821-.002l5.848-4.04c1.913-1.325 3.379-4.1 3.379-6.453v-8.173a.764.764 0 00-.43-.665zM27.992 15.44a1.304 1.304 0 01-.478.985v-1.97c.295.24.47.601.478.985zM22.676 1.482c2.863 0 5.234 2.222 5.593 5H16.12c-1.358 0-2.46-1.12-2.46-2.5s1.102-2.5 2.46-2.5h6.555zM12.263 3.324c-.304 1.828.677 3.627 2.363 4.333-2.188 2.376-4.6 2.701-5.784 2.705v-.07a8.832 8.832 0 013.421-6.968zM6.847 15.44c0-.427.174-.805.538-1.03v2.017a1.135 1.135 0 01-.538-.987zm4.518 7.599a9.034 9.034 0 01-2.523-6.277v-4.92c1.549-.008 4.777-.452 7.448-3.878h9.767v8.798a9.05 9.05 0 01-2.54 6.277c-1.633 1.705-3.795 2.644-6.076 2.644-2.28 0-4.443-.94-6.076-2.644zm6.08 4.126a9.506 9.506 0 004.422-1.088v1.678l-4.346 2.768-4.125-2.757V26.26a9.52 9.52 0 004.05.903zm-15.07 7.474c0-3.16 2.575-5.748 5.684-5.748h4.353l4.354 2.911v7.83H2.376V34.64zm15.849 4.994v-7.82l4.595-2.922h2.6v6.599c0 1.356.47 2.846 1.243 4.143h-8.438zM43.18 35.49c0 1.844-1.243 4.19-2.742 5.229l-5.426 3.754-5.415-3.754c-1.5-1.04-2.72-3.385-2.72-5.23v-7.722l8.151-4.05 8.152 4.061v7.712z" fill="#000"/><path d="M32.142 33.559a.721.721 0 00-.706-.201.734.734 0 00-.52.524.749.749 0 00.19.72l2.27 2.32a.712.712 0 00.516.21h.002a.714.714 0 00.515-.207l4.483-4.554a.748.748 0 00.192-.717.734.734 0 00-.518-.525.72.72 0 00-.704.197l-3.966 4.033-1.754-1.8z" fill="#000"/></svg>
